!!!ONB: MCCC : IFC0048_00 : Extracted Monophonic Melody
!!!COM: Chopin, Frédéric
!!!OTL: Mazurkas
!!!SCT: Op.7
!!!ODT: 1824///
**kern
*thru
*staff1
*clefG2
*k[]
*a:
*M3/4
4e
=1
2.e
=2
2.a
=3
2.b
=4
4r
4f#
4g#
=5
2.e
=6
2.a
=7
2.b
=8
4r
4f#
4g#
=9
2ee
12ee
12ff
12ee
=10
8dd#
8dd#
4dd
4g#
=11
4cc
4e
12cc
12dd
12cc
=12
8b
4.f
4b
=13
4ee
8e
8a
12ee
12ff
12ee
=14
8dd#
8d#
8a
8dd#
4dd
=15
4cc
4e
12cc
12dd
12cc
=16
8b
4.f
4b
=17
2.g
=18
2.cc
=19
2.dd
=20
4r
4a
4b
=21
2.g
=22
2.cc
=23
2.dd
=24
4r
4a
4b
=25
2gg
12gg
12aa
12gg
=26
8ff#
4.a
4ff
=27
4ee
4g
12ee
12ff
12ee
=28
8dd#
4.f#
4dd
=29
4gg
8g
8cc
12gg
12aa
12gg
=30
8ff#
4.a
4ff
=31
4ee
8g
8cc
12ee
12ff
12ee
=32
8dd
8f
8b
8dd
4cc
=33
2.b
=34
2.a
=35
2.b
=36
4r
4f#
4g#
=37
2.e
=38
2.a
=39
2.b
=40
4r
4f#
4g#
=41
*k[f#c#g#]
8dd
8cc#
4b
8cc#
8b
=42
8a
8g#
4f#
8g#
8f#
=43
8e
8f#
4g#
8a
8b
=44
8cc#
8dd
4dd#
8ee
8ee#
=45
8gg#
8ff#
4aa
8ff#
8gg#
=46
8ff#
8ee
4aa
8ee
8ff#
=47
8ee
8dd
4ff#
8dd
8ee
=48
8dd
8cc#
4ff#
8cc#
8ee
=49
8dd
8cc#
4b
8cc#
8b
=50
8a
8g#
4f#
8g#
8f#
=51
8e
8f#
4g#
8a
8b
=52
8cc#
8dd
4dd#
8ee
8ee#
=53
8ff#
8ff##
4gg#
8aa#
8bb#
=54
8ccc#
8ddd#
4eee#
8ff#
8ff##
=55
8aa#
8gg#
4ff#
8ee#
8dd#
=56
8ff#
8ee#
4ccc#
8bb#
8ccc#
=57
8ddd
8ccc#
4bb
8ccc#
8bb
=58
8aa
8gg#
4ff#
8gg#
8ff#
=59
8ee
8ff#
4gg#
8aa
8bb
=60
8ccc#
8ddd
4ddd#
8ee
8ee#
=61
8gg#
8ff#
4aa
8ff#
8gg#
=62
8ff#
8ee
4aa
8ee
8ff#
=63
8ee
8dd
4ff#
8ddd
8eee
=64
8ddd
8ccc#
4fff#
8ccc#
8eee
=65
8ddd
8ccc#
4bb
8ccc#
8bb
=66
8aa
8gg#
4ff#
8gg#
8ff#
=67
8ee
8ff#
4gg#
8aa
8bb
=68
8ccc#
8ddd
4ddd#
8eee
8eee#
=69
8ggg#
8fff#
4ddd
8ccc#
8bb
=70
8ccc#
8bb
4aa
8gg#
8ff#
=71
8ee
8dd
4bb
4aa
=72
8aa
8gg#
4ff#
8eee
8ddd
=73
8ccc#
8bb
4ggg#
8fff#
8fff
=74
8eee
8ddd#
4ddd
8bb
8gg#
=75
8ff
8ee
4dd#
8dd
8b
=76
8g#
8f
4e
8d#
8f
=77
*k[]
2.e
=78
2.a
=79
2.b
=80
4r
4f#
4g#
=81
2.e
=82
2.a
=83
2.b
=84
4r
4f#
4g#
=85
4ee
4e
12ee
12ff
12ee
=86
8dd#
8d#
8a
8dd#
4dd
=87
4cc
8e
8a
12cc
12dd
12cc
=88
8b
8f
8a
8cc
4b
=89
4ee
8e
8a
12ee
12ff
12ee
=90
8dd#
8d#
8a
8dd#
4dd
=91
4cc
8e
8a
12cc
12dd
12cc
=92
8b
8f
8a
8cc
4b
=93
2.g
=94
2.cc
=95
2.dd
=96
4r
4a
4b
=97
2.g
=98
2.cc
=99
2.dd
=100
4r
4a
4b
=101
4gg
4g
12gg
12aa
12gg
=102
8ff#
4.f#
4ff
=103
4ee
4g
12ee
12ff
12ee
=104
8ee-
4.f#
4dd
=105
4gg
8g
8cc
12gg
12aa
12gg
=106
8ff#
4.f#
4ff
=107
4ee
4g
12ee
12ff
12ee
=108
8dd
8f
8b
8dd
4cc
=109
4b
8d
8e
12b
12cc
12b
=110
8a
4.c
4cc
=111
4b
8d
8e
12b
12cc
12b
=112
4a
8g
8f
4e
=113
4b
8d
8g#
12b
12cc
12b
=114
8a
8c
8e
8a
4cc
=115
4b
8d
8g#
12b
12cc
12b
=116
4a
8g
8f
4e
=117
4b
4d
12b
12cc
12b
=118
8a
8c
8e
8a
4cc
=119
8a
8c
8e
8a
4cc
=120
8a
4.c
4cc
=121
2.a
=122
2.a
=123
2.a
=124
2.a
=125
2.a
=126
2.a
=127
2.a
=128
2.a
=129
2.a
=130
2.a
=131
4cccc
4r
4r
==
*-
